svg/immich-public-proxy-dark.svg

<svg xmlns="http://www.w3.org/2000/svg" xml:space="preserve" viewBox="0 0 512 512"><path d="m471.7 76.3-.1-11-10.9-.8C356.3 56.9 261.8 4 260.9 3.5L254.8.1l-6 3.6c-.9.5-86.2 51.9-197.5 60.8l-10.9.9-.1 10.9c-.7 113 12.1 192.6 41.8 258 32.2 70.9 85.2 126.3 166.8 174.2l6 3.5 6.1-3.6c40.3-23.7 73.3-49.3 100.9-78.2 27.5-28.8 48.9-60.2 65.6-96.2 30.9-66.7 44.9-148.6 44.2-257.7m-47.4 199.4c-53.3 3.7-95.7.5-141.2-6 42.4-56.3 78.7-116.6 88.6-196.9 23.7 6.4 49.5 11.7 76.4 14.4-.2 73.8-7.7 135.6-23.8 188.5M64.1 87.1c17.5-1.8 34.3-4.6 50.2-8 50.7 24.8 100.8 50.3 138.4 96.4-97.6 30.8-129.8 65.3-167 99.5-14.9-52-21.5-113.3-21.6-187.9M140.2 73C198 57.6 240 35.8 255.1 27.4c14 7.4 50.7 25.5 98.6 40.2-5.7 53.7-25.9 101.7-52.8 146-40-67-95.5-111.5-160.7-140.6m65.2 139.1c1.5 100.1 11.8 189.8 97.3 239.7-14.7 11.4-30.5 22.2-47.7 32.6-83-50-134.6-107.4-162.9-189.3 32.3-34.9 66.7-59.4 113.3-83M314.8 442c-68.3-38.4-78.5-104-90.7-168.8 65.7 20.9 130.3 25.3 194.5 19.7-21.4 60.2-55.2 108.3-103.8 149.1"/></svg>

<?xml version="1.0" encoding="utf-8"?>
<!-- Generator: Adobe Illustrator 28.2.0, SVG Export Plug-In . SVG Version: 6.00 Build 0)  -->
<svg version="1.1"
	 id="svg1" xmlns:svg="http://www.w3.org/2000/svg" xmlns:sodipodi="http://sodipodi.sourceforge.net/DTD/sodipodi-0.dtd" xmlns:inkscape="http://www.inkscape.org/namespaces/inkscape"
	 xmlns="http://www.w3.org/2000/svg" xmlns:xlink="http://www.w3.org/1999/xlink" x="0px" y="0px" viewBox="0 0 512 512"
	 style="enable-background:new 0 0 512 512;" xml:space="preserve">
<path d="M471.7,76.3l-0.1-11l-10.9-0.8C356.3,56.9,261.8,4,260.9,3.5l-6.1-3.4l-6,3.6c-0.9,0.5-86.2,51.9-197.5,60.8l-10.9,0.9
	l-0.1,10.9c-0.7,113,12.1,192.6,41.8,258c32.2,70.9,85.2,126.3,166.8,174.2l6,3.5l6.1-3.6c40.3-23.7,73.3-49.3,100.9-78.2
	c27.5-28.8,48.9-60.2,65.6-96.2C458.4,267.3,472.4,185.4,471.7,76.3z M424.3,275.7c-53.3,3.7-95.7,0.5-141.2-6
	c42.4-56.3,78.7-116.6,88.6-196.9c23.7,6.4,49.5,11.7,76.4,14.4C447.9,161,440.4,222.8,424.3,275.7z M64.1,87.1
	c17.5-1.8,34.3-4.6,50.2-8c50.7,24.8,100.8,50.3,138.4,96.4c-97.6,30.8-129.8,65.3-167,99.5C70.8,223,64.2,161.7,64.1,87.1z
	 M140.2,73C198,57.6,240,35.8,255.1,27.4c14,7.4,50.7,25.5,98.6,40.2c-5.7,53.7-25.9,101.7-52.8,146
	C260.9,146.6,205.4,102.1,140.2,73z M205.4,212.1c1.5,100.1,11.8,189.8,97.3,239.7C288,463.2,272.2,474,255,484.4
	c-83-50-134.6-107.4-162.9-189.3C124.4,260.2,158.8,235.7,205.4,212.1z M314.8,442c-68.3-38.4-78.5-104-90.7-168.8
	c65.7,20.9,130.3,25.3,194.5,19.7C397.2,353.1,363.4,401.2,314.8,442z"/>
</svg>
